packages/foundations/assets/icons/functional/images/transportation/scooter.svg

<svg xmlns="http://www.w3.org/2000/svg" width="32" height="32" fill="none"><path fill="#1A1C1F" fill-rule="evenodd" d="M19.6 6.59c-.397.206-.656.646-.596 1.014.053.33.274.639.555.778.248.121.301.125 2.041.151 1.863.028 1.889.032 2.117.276.272.291.283.382.283 2.42v1.9l-2.733 3.193-2.734 3.194-1.4.002c-.77.001-1.4-.011-1.4-.026 0-.147-2.657-8.809-2.761-9.002-.183-.337-.478-.597-.912-.803l-.353-.167-2.385-.016c-1.616-.011-2.455.003-2.603.043-.303.081-.605.397-.685.714a.9.9 0 0 0 .216.862c.333.379.25.367 2.756.397l2.26.027.258.853c.141.469.271.907.288.973l.03.12-2.548.001c-2.687 0-3.218.035-3.856.257-1.865.647-3.169 2.253-3.406 4.196-.076.621-.076 2.495 0 2.773.082.298.291.554.548.671.173.078.35.1.82.101l.6.001v.189c0 .563.308 1.485.676 2.025a4.05 4.05 0 0 0 3.587 1.773c1.941-.107 3.536-1.669 3.72-3.643l.032-.344h7.222l.221-.12c.165-.09 1.003-1.035 3.339-3.771 2.855-3.343 3.124-3.673 3.174-3.909.088-.411.069-4.183-.024-4.704a3.02 3.02 0 0 0-2.27-2.4c-.511-.12-3.844-.119-4.077.001m-6.566 10.864c.32 1.063.592 1.963.606 1.999.02.053-.964.067-4.808.067H4v-.6c.001-.775.073-1.211.272-1.639a3 3 0 0 1 1.995-1.682c.208-.056.909-.073 3.226-.075l2.96-.003zm12.358.098a4.02 4.02 0 0 0-3.265 2.97c-.213.816-.115 1.878.246 2.667.624 1.361 2.108 2.304 3.627 2.304a4.08 4.08 0 0 0 3.255-1.679c1.212-1.698.883-4.118-.736-5.412-.419-.335-1.081-.668-1.536-.773-.467-.107-1.171-.141-1.591-.077m1.447 2.141c1.235.567 1.537 2.235.579 3.19-.341.339-.651.506-1.096.588a2.04 2.04 0 0 1-1.195-.173c-.377-.181-.82-.653-.969-1.032-.159-.403-.175-1.042-.037-1.439.188-.54.713-1.052 1.258-1.226.391-.126 1.082-.082 1.46.092m-16.882 2.1c-.062.609-.513 1.236-1.072 1.491-.627.287-1.143.287-1.77 0-.559-.255-1.01-.882-1.072-1.491l-.031-.3h3.976z"/></svg>

<svg width="32" height="32" viewBox="0 0 32 32" fill="none" xmlns="http://www.w3.org/2000/svg"><path d="M19.600 6.590 C 19.203 6.796,18.944 7.236,19.004 7.604 C 19.057 7.934,19.278 8.243,19.559 8.382 C 19.807 8.503,19.860 8.507,21.600 8.533 C 23.463 8.561,23.489 8.565,23.717 8.809 C 23.989 9.100,24.000 9.191,24.000 11.229 L 24.000 13.129 21.267 16.322 L 18.533 19.516 17.133 19.518 C 16.363 19.519,15.733 19.507,15.733 19.492 C 15.733 19.345,13.076 10.683,12.972 10.490 C 12.789 10.153,12.494 9.893,12.060 9.687 L 11.707 9.520 9.322 9.504 C 7.706 9.493,6.867 9.507,6.719 9.547 C 6.416 9.628,6.114 9.944,6.034 10.261 C 5.953 10.582,6.024 10.866,6.250 11.123 C 6.583 11.502,6.500 11.490,9.006 11.520 L 11.266 11.547 11.524 12.400 C 11.665 12.869,11.795 13.307,11.812 13.373 L 11.842 13.493 9.294 13.494 C 6.607 13.494,6.076 13.529,5.438 13.751 C 3.573 14.398,2.269 16.004,2.032 17.947 C 1.956 18.568,1.956 20.442,2.032 20.720 C 2.114 21.018,2.323 21.274,2.580 21.391 C 2.753 21.469,2.930 21.491,3.400 21.492 L 4.000 21.493 4.000 21.682 C 4.000 22.245,4.308 23.167,4.676 23.707 C 5.487 24.895,6.830 25.559,8.263 25.480 C 10.204 25.373,11.799 23.811,11.983 21.837 L 12.015 21.493 15.626 21.493 L 19.237 21.493 19.458 21.373 C 19.623 21.283,20.461 20.338,22.797 17.602 C 25.652 14.259,25.921 13.929,25.971 13.693 C 26.059 13.282,26.040 9.510,25.947 8.989 C 25.738 7.813,24.839 6.863,23.677 6.589 C 23.166 6.469,19.833 6.470,19.600 6.590 M13.034 17.454 C 13.354 18.517,13.626 19.417,13.640 19.453 C 13.660 19.506,12.676 19.520,8.832 19.520 L 4.000 19.520 4.000 18.920 C 4.001 18.145,4.073 17.709,4.272 17.281 C 4.670 16.423,5.355 15.847,6.267 15.599 C 6.475 15.543,7.176 15.526,9.493 15.524 L 12.453 15.521 13.034 17.454 M25.392 17.552 C 23.819 17.793,22.534 18.961,22.127 20.522 C 21.914 21.338,22.012 22.400,22.373 23.189 C 22.997 24.550,24.481 25.493,26.000 25.493 C 27.263 25.493,28.519 24.846,29.255 23.814 C 30.467 22.116,30.138 19.696,28.519 18.402 C 28.100 18.067,27.438 17.734,26.983 17.629 C 26.516 17.522,25.812 17.488,25.392 17.552 M26.839 19.693 C 28.074 20.260,28.376 21.928,27.418 22.883 C 27.077 23.222,26.767 23.389,26.322 23.471 C 25.947 23.540,25.494 23.474,25.127 23.298 C 24.750 23.117,24.307 22.645,24.158 22.266 C 23.999 21.863,23.983 21.224,24.121 20.827 C 24.309 20.287,24.834 19.775,25.379 19.601 C 25.770 19.475,26.461 19.519,26.839 19.693 M9.957 21.793 C 9.895 22.402,9.444 23.029,8.885 23.284 C 8.258 23.571,7.742 23.571,7.115 23.284 C 6.556 23.029,6.105 22.402,6.043 21.793 L 6.012 21.493 8.000 21.493 L 9.988 21.493 9.957 21.793 " fill="#1A1C1F" stroke="none" fill-rule="evenodd"></path></svg>
